!!!OTL: 1600. Abschied von Coeln, Strassburg und Elberfeld.
!!!ODT: 1890
!!!ARE: Europa, Mitteleuropa, Deutschland, Hessen, Wetterau
!!!SCT: E1600
!!!TXL: @@DE
!!!YEM: Copyright 1995, estate of Helmut Schaffrath.
**kern	**text
*ICvox	*
*M3/4	*
*k[f#c#]	*
*D:	*
!LO:TX:a:t=Mäßig bewegt.	!
!LO:TX:a:t=Aus der Wetterau 1890.	!
{8d	Cöln
8f#	am
=1	=1
4a	Rhein,
4b	du
8.a	ſchö-
16g	-nes
=2	=2
8gL	Städtchen,
8f#J	.
4f#}	.
{8.e	Cöln
16f#	am
=3	=3
8gL	Rhein,
8bJ	.
4b	du
8.a	ſchö-
16g	-ne
=4	=4
4f#	Stadt!
4r}	.
{8a	Und
8g	da-
=5	=5
8.f#L	-rin-
16eJ	.
4e	-nen
8d	muß
8f#	ich
=6	=6
8aL	laſ-
8ddJ	.
8dd}	-ſen
{8dd	mein'
8cc#	herʒ-
8b	-aller-
=7	=7
8a	-lieb,
8g	ja
8b	liebſten
8a	.
8g	liebſten
8a	.
=8	=8
4f#	Schatʒ.
4r}	.
{8a	Und
8g	da-
=9	=9
8.f#L	-rin-
16eJ	.
4e	-nen
8d	muß
8f#	ich
=10	=10
8aL	laſ-
8ddJ	.
8dd}	-ſen
{8dd	mein'
8cc#	herʒ-
8b	-aller-
=11	=11
8a	-lieb,
8g	ja
8b	liebſten
8a	.
8g	liebſten
8a	.
=12	=12
4f#	Schatʒ.
4r}	.
==	==
!!!AGN: Staende -, Handwerker -, Gesellen - Lied; Abschied, Wanderschaft
!!!ONB: ESAC (Essen Associative Code) Database: ERK3
!!!AMT: simple triple
!!!AIN: vox
!!!EED: Helmut Schaffrath
!!!EEV: 1.0
!!!GTL: Staendelieder (Berufslieder). 8. Handwerkerlieder.
!!!URL-scan: https://rosdok.uni-rostock.de/mcrviewer/recordIdentifier/rosdok_ppn745177999/iview2/phys_0426.iview2?x=-449.8344612962892&y=1380.2313190039713&scale=0.47549036216460333&rotation=0&layout=singlePageLayout
!!!ENC: Anna Maria Matuszewska
!!!EEV: 2025/08/01
*-	*-
